X:1
T:The Ballad of Aimee McPherson
M:4/4
L:1/8
K:G
 z4 z2 B,B,| B,B, B,B, ^DD D2| FF F2 A A3| cc c2 BB B2| AA G2 E E2 E|\
 B,B, B,B, ^DD DD| F2 F2 A3 A| cc cc BB FF| A G2 E- E2 EE| EE EE B2 EE|\
 EE EE B,4|
